itou/static/img/search-bg-left.svg

<svg width="215" height="304" viewBox="0 0 215 304" fill="none" xmlns="http://www.w3.org/2000/svg">
<path fill-rule="evenodd" clip-rule="evenodd" d="M36.7279 215.419C35.775 215.419 35 214.652 35 213.709C35 212.767 35.775 212 36.7279 212C37.6809 212 38.4565 212.767 38.4565 213.709C38.4565 214.652 37.6809 215.419 36.7279 215.419" fill="#000638"/>
<path fill-rule="evenodd" clip-rule="evenodd" d="M49.4018 215.419C48.4489 215.419 47.6739 214.652 47.6739 213.709C47.6739 212.767 48.4489 212 49.4018 212C50.3548 212 51.1304 212.767 51.1304 213.709C51.1304 214.652 50.3548 215.419 49.4018 215.419" fill="#000638"/>
<path fill-rule="evenodd" clip-rule="evenodd" d="M61.4997 215.419C60.5467 215.419 59.7717 214.652 59.7717 213.709C59.7717 212.767 60.5467 212 61.4997 212C62.4526 212 63.2283 212.767 63.2283 213.709C63.2283 214.652 62.4526 215.419 61.4997 215.419" fill="#000638"/>
<path fill-rule="evenodd" clip-rule="evenodd" d="M74.1736 215.419C73.2206 215.419 72.4456 214.652 72.4456 213.709C72.4456 212.767 73.2206 212 74.1736 212C75.1265 212 75.9022 212.767 75.9022 213.709C75.9022 214.652 75.1265 215.419 74.1736 215.419" fill="#000638"/>
<path fill-rule="evenodd" clip-rule="evenodd" d="M86.2714 215.419C85.3185 215.419 84.5435 214.652 84.5435 213.709C84.5435 212.767 85.3185 212 86.2714 212C87.2243 212 88 212.767 88 213.709C88 214.652 87.2243 215.419 86.2714 215.419" fill="#000638"/>
<path fill-rule="evenodd" clip-rule="evenodd" d="M36.7279 227.955C35.775 227.955 35 227.188 35 226.246C35 225.303 35.775 224.536 36.7279 224.536C37.6809 224.536 38.4565 225.303 38.4565 226.246C38.4565 227.188 37.6809 227.955 36.7279 227.955" fill="#000638"/>
<path fill-rule="evenodd" clip-rule="evenodd" d="M49.4018 227.955C48.4489 227.955 47.6739 227.188 47.6739 226.246C47.6739 225.303 48.4489 224.536 49.4018 224.536C50.3548 224.536 51.1304 225.303 51.1304 226.246C51.1304 227.188 50.3548 227.955 49.4018 227.955" fill="#000638"/>
<path fill-rule="evenodd" clip-rule="evenodd" d="M61.4997 227.955C60.5467 227.955 59.7717 227.188 59.7717 226.246C59.7717 225.303 60.5467 224.536 61.4997 224.536C62.4526 224.536 63.2283 225.303 63.2283 226.246C63.2283 227.188 62.4526 227.955 61.4997 227.955" fill="#000638"/>
<path fill-rule="evenodd" clip-rule="evenodd" d="M74.1736 227.955C73.2206 227.955 72.4456 227.188 72.4456 226.246C72.4456 225.303 73.2206 224.536 74.1736 224.536C75.1265 224.536 75.9022 225.303 75.9022 226.246C75.9022 227.188 75.1265 227.955 74.1736 227.955" fill="#000638"/>
<path fill-rule="evenodd" clip-rule="evenodd" d="M86.2714 227.955C85.3185 227.955 84.5435 227.188 84.5435 226.246C84.5435 225.303 85.3185 224.536 86.2714 224.536C87.2243 224.536 88 225.303 88 226.246C88 227.188 87.2243 227.955 86.2714 227.955" fill="#000638"/>
<path fill-rule="evenodd" clip-rule="evenodd" d="M36.7279 239.922C35.775 239.922 35 239.155 35 238.212C35 237.27 35.775 236.503 36.7279 236.503C37.6809 236.503 38.4565 237.27 38.4565 238.212C38.4565 239.155 37.6809 239.922 36.7279 239.922" fill="#000638"/>
<path fill-rule="evenodd" clip-rule="evenodd" d="M49.4018 239.922C48.4489 239.922 47.6739 239.155 47.6739 238.212C47.6739 237.27 48.4489 236.503 49.4018 236.503C50.3548 236.503 51.1304 237.27 51.1304 238.212C51.1304 239.155 50.3548 239.922 49.4018 239.922" fill="#000638"/>
<path fill-rule="evenodd" clip-rule="evenodd" d="M61.4997 239.922C60.5467 239.922 59.7717 239.155 59.7717 238.212C59.7717 237.27 60.5467 236.503 61.4997 236.503C62.4526 236.503 63.2283 237.27 63.2283 238.212C63.2283 239.155 62.4526 239.922 61.4997 239.922" fill="#000638"/>
<path fill-rule="evenodd" clip-rule="evenodd" d="M74.1736 239.922C73.2206 239.922 72.4456 239.155 72.4456 238.212C72.4456 237.27 73.2206 236.503 74.1736 236.503C75.1265 236.503 75.9022 237.27 75.9022 238.212C75.9022 239.155 75.1265 239.922 74.1736 239.922" fill="#000638"/>
<path fill-rule="evenodd" clip-rule="evenodd" d="M86.2714 239.922C85.3185 239.922 84.5435 239.155 84.5435 238.212C84.5435 237.27 85.3185 236.503 86.2714 236.503C87.2243 236.503 88 237.27 88 238.212C88 239.155 87.2243 239.922 86.2714 239.922" fill="#000638"/>
<path fill-rule="evenodd" clip-rule="evenodd" d="M36.7279 252.458C35.775 252.458 35 251.691 35 250.749C35 249.806 35.775 249.039 36.7279 249.039C37.6809 249.039 38.4565 249.806 38.4565 250.749C38.4565 251.691 37.6809 252.458 36.7279 252.458" fill="#000638"/>
<path fill-rule="evenodd" clip-rule="evenodd" d="M49.4018 252.458C48.4489 252.458 47.6739 251.691 47.6739 250.749C47.6739 249.806 48.4489 249.039 49.4018 249.039C50.3548 249.039 51.1304 249.806 51.1304 250.749C51.1304 251.691 50.3548 252.458 49.4018 252.458" fill="#000638"/>
<path fill-rule="evenodd" clip-rule="evenodd" d="M61.4997 252.458C60.5467 252.458 59.7717 251.691 59.7717 250.749C59.7717 249.806 60.5467 249.039 61.4997 249.039C62.4526 249.039 63.2283 249.806 63.2283 250.749C63.2283 251.691 62.4526 252.458 61.4997 252.458" fill="#000638"/>
<path fill-rule="evenodd" clip-rule="evenodd" d="M74.1736 252.458C73.2206 252.458 72.4456 251.691 72.4456 250.749C72.4456 249.806 73.2206 249.039 74.1736 249.039C75.1265 249.039 75.9022 249.806 75.9022 250.749C75.9022 251.691 75.1265 252.458 74.1736 252.458" fill="#000638"/>
<path fill-rule="evenodd" clip-rule="evenodd" d="M86.2714 252.458C85.3185 252.458 84.5435 251.691 84.5435 250.749C84.5435 249.806 85.3185 249.039 86.2714 249.039C87.2243 249.039 88 249.806 88 250.749C88 251.691 87.2243 252.458 86.2714 252.458" fill="#000638"/>
<path fill-rule="evenodd" clip-rule="evenodd" d="M36.7279 264.994C35.775 264.994 35 264.228 35 263.285C35 262.343 35.775 261.575 36.7279 261.575C37.6809 261.575 38.4565 262.343 38.4565 263.285C38.4565 264.228 37.6809 264.994 36.7279 264.994" fill="#000638"/>
<path fill-rule="evenodd" clip-rule="evenodd" d="M49.4018 264.994C48.4489 264.994 47.6739 264.228 47.6739 263.285C47.6739 262.343 48.4489 261.575 49.4018 261.575C50.3548 261.575 51.1304 262.343 51.1304 263.285C51.1304 264.228 50.3548 264.994 49.4018 264.994" fill="#000638"/>
<path fill-rule="evenodd" clip-rule="evenodd" d="M61.4997 264.994C60.5467 264.994 59.7717 264.228 59.7717 263.285C59.7717 262.343 60.5467 261.575 61.4997 261.575C62.4526 261.575 63.2283 262.343 63.2283 263.285C63.2283 264.228 62.4526 264.994 61.4997 264.994" fill="#000638"/>
<path fill-rule="evenodd" clip-rule="evenodd" d="M74.1736 264.994C73.2206 264.994 72.4456 264.228 72.4456 263.285C72.4456 262.343 73.2206 261.575 74.1736 261.575C75.1265 261.575 75.9022 262.343 75.9022 263.285C75.9022 264.228 75.1265 264.994 74.1736 264.994" fill="#000638"/>
<path fill-rule="evenodd" clip-rule="evenodd" d="M86.2714 264.994C85.3185 264.994 84.5435 264.228 84.5435 263.285C84.5435 262.343 85.3185 261.575 86.2714 261.575C87.2243 261.575 88 262.343 88 263.285C88 264.228 87.2243 264.994 86.2714 264.994" fill="#000638"/>
<path fill-rule="evenodd" clip-rule="evenodd" d="M36.7279 276.961C35.775 276.961 35 276.194 35 275.251C35 274.309 35.775 273.542 36.7279 273.542C37.6809 273.542 38.4565 274.309 38.4565 275.251C38.4565 276.194 37.6809 276.961 36.7279 276.961" fill="#000638"/>
<path fill-rule="evenodd" clip-rule="evenodd" d="M49.4018 276.961C48.4489 276.961 47.6739 276.194 47.6739 275.251C47.6739 274.309 48.4489 273.542 49.4018 273.542C50.3548 273.542 51.1304 274.309 51.1304 275.251C51.1304 276.194 50.3548 276.961 49.4018 276.961" fill="#000638"/>
<path fill-rule="evenodd" clip-rule="evenodd" d="M61.4997 276.961C60.5467 276.961 59.7717 276.194 59.7717 275.251C59.7717 274.309 60.5467 273.542 61.4997 273.542C62.4526 273.542 63.2283 274.309 63.2283 275.251C63.2283 276.194 62.4526 276.961 61.4997 276.961" fill="#000638"/>
<path fill-rule="evenodd" clip-rule="evenodd" d="M74.1736 276.961C73.2206 276.961 72.4456 276.194 72.4456 275.251C72.4456 274.309 73.2206 273.542 74.1736 273.542C75.1265 273.542 75.9022 274.309 75.9022 275.251C75.9022 276.194 75.1265 276.961 74.1736 276.961" fill="#000638"/>
<path fill-rule="evenodd" clip-rule="evenodd" d="M86.2714 276.961C85.3185 276.961 84.5435 276.194 84.5435 275.251C84.5435 274.309 85.3185 273.542 86.2714 273.542C87.2243 273.542 88 274.309 88 275.251C88 276.194 87.2243 276.961 86.2714 276.961" fill="#000638"/>
<path fill-rule="evenodd" clip-rule="evenodd" d="M36.7279 289.497C35.775 289.497 35 288.73 35 287.787C35 286.845 35.775 286.078 36.7279 286.078C37.6809 286.078 38.4565 286.845 38.4565 287.787C38.4565 288.73 37.6809 289.497 36.7279 289.497" fill="#000638"/>
<path fill-rule="evenodd" clip-rule="evenodd" d="M49.4018 289.497C48.4489 289.497 47.6739 288.73 47.6739 287.787C47.6739 286.845 48.4489 286.078 49.4018 286.078C50.3548 286.078 51.1304 286.845 51.1304 287.787C51.1304 288.73 50.3548 289.497 49.4018 289.497" fill="#000638"/>
<path fill-rule="evenodd" clip-rule="evenodd" d="M61.4997 289.497C60.5467 289.497 59.7717 288.73 59.7717 287.787C59.7717 286.845 60.5467 286.078 61.4997 286.078C62.4526 286.078 63.2283 286.845 63.2283 287.787C63.2283 288.73 62.4526 289.497 61.4997 289.497" fill="#000638"/>
<path fill-rule="evenodd" clip-rule="evenodd" d="M74.1736 289.497C73.2206 289.497 72.4456 288.73 72.4456 287.787C72.4456 286.845 73.2206 286.078 74.1736 286.078C75.1265 286.078 75.9022 286.845 75.9022 287.787C75.9022 288.73 75.1265 289.497 74.1736 289.497" fill="#000638"/>
<path fill-rule="evenodd" clip-rule="evenodd" d="M86.2714 289.497C85.3185 289.497 84.5435 288.73 84.5435 287.787C84.5435 286.845 85.3185 286.078 86.2714 286.078C87.2243 286.078 88 286.845 88 287.787C88 288.73 87.2243 289.497 86.2714 289.497" fill="#000638"/>
<path fill-rule="evenodd" clip-rule="evenodd" d="M36.7279 301.464C35.775 301.464 35 300.697 35 299.754C35 298.812 35.775 298.045 36.7279 298.045C37.6809 298.045 38.4565 298.812 38.4565 299.754C38.4565 300.697 37.6809 301.464 36.7279 301.464" fill="#000638"/>
<path fill-rule="evenodd" clip-rule="evenodd" d="M49.4018 301.464C48.4489 301.464 47.6739 300.697 47.6739 299.754C47.6739 298.812 48.4489 298.045 49.4018 298.045C50.3548 298.045 51.1304 298.812 51.1304 299.754C51.1304 300.697 50.3548 301.464 49.4018 301.464" fill="#000638"/>
<path fill-rule="evenodd" clip-rule="evenodd" d="M61.4997 301.464C60.5467 301.464 59.7717 300.697 59.7717 299.754C59.7717 298.812 60.5467 298.045 61.4997 298.045C62.4526 298.045 63.2283 298.812 63.2283 299.754C63.2283 300.697 62.4526 301.464 61.4997 301.464" fill="#000638"/>
<path fill-rule="evenodd" clip-rule="evenodd" d="M74.1736 301.464C73.2206 301.464 72.4456 300.697 72.4456 299.754C72.4456 298.812 73.2206 298.045 74.1736 298.045C75.1265 298.045 75.9022 298.812 75.9022 299.754C75.9022 300.697 75.1265 301.464 74.1736 301.464" fill="#000638"/>
<path fill-rule="evenodd" clip-rule="evenodd" d="M86.2714 301.464C85.3185 301.464 84.5435 300.697 84.5435 299.754C84.5435 298.812 85.3185 298.045 86.2714 298.045C87.2243 298.045 88 298.812 88 299.754C88 300.697 87.2243 301.464 86.2714 301.464" fill="#000638"/>
<path fill-rule="evenodd" clip-rule="evenodd" d="M46.5 -19C9.21992 -19 -21 11.2199 -21 48.5C-21 85.7801 9.21992 116 46.5 116C83.7777 116 114 85.7801 114 48.5C114 11.2199 83.7777 -19 46.5 -19Z" fill="#000638"/>
<path fill-rule="evenodd" clip-rule="evenodd" d="M7.01137 52.246L-21.7547 81.0115C-21.9154 82.3466 -22.003 83.6893 -21.9999 85.0328L11.0328 52C9.68927 51.9978 8.34651 52.0853 7.01137 52.246Z" fill="#FFFFFE"/>
<path fill-rule="evenodd" clip-rule="evenodd" d="M16.5341 53.0656L-20.9344 90.5341C-20.7558 91.5503 -20.5294 92.5583 -20.253 93.5574L19.5574 53.7463C18.5591 53.4705 17.5504 53.2434 16.5341 53.0656Z" fill="#FFFFFE"/>
<path fill-rule="evenodd" clip-rule="evenodd" d="M23.4958 55.1967L-18.8033 97.4958C-18.4352 98.3275 -18.0301 99.1465 -17.5872 99.9508L25.9508 56.4128C25.1465 55.9699 24.3275 55.5648 23.4958 55.1967Z" fill="#FFFFFE"/>
<path fill-rule="evenodd" clip-rule="evenodd" d="M30.271 58.3934L-15.6066 104.271C-15.0801 104.98 -14.5165 105.67 -13.9249 106.344L32.3443 60.0751C31.6701 59.4835 30.98 58.9199 30.271 58.3934Z" fill="#FFFFFE"/>
<path fill-rule="evenodd" clip-rule="evenodd" d="M34.9249 62.6558L-11.3443 108.925C-10.6701 109.517 -9.98 110.08 -9.27098 110.607L36.6066 64.7291C36.0801 64.02 35.5165 63.3299 34.9249 62.6558Z" fill="#FFFFFE"/>
<path fill-rule="evenodd" clip-rule="evenodd" d="M38.5873 69.0492L-4.95081 112.587C-4.14581 113.03 -3.32748 113.435 -2.49508 113.803L39.8033 71.5042C39.4352 70.6725 39.0294 69.8535 38.5873 69.0492Z" fill="#FFFFFE"/>
<path fill-rule="evenodd" clip-rule="evenodd" d="M41.2537 75.4426L1.44263 115.253C2.44166 115.529 3.4504 115.756 4.46662 115.934L41.9344 78.4659C41.7566 77.4497 41.5294 76.4409 41.2537 75.4426Z" fill="#FFFFFE"/>
<path fill-rule="evenodd" clip-rule="evenodd" d="M43 83.9672L9.96722 117C11.31 117.002 12.6527 116.915 13.9879 116.755L42.754 87.9886C42.9154 86.6527 43.0023 85.3107 43 83.9672Z" fill="#FFFFFE"/>
<path fill-rule="evenodd" clip-rule="evenodd" d="M22.7541 114.869C26.728 113.284 30.453 110.887 33.6702 107.67C36.8874 104.453 39.2842 100.728 40.8688 96.7541L22.7541 114.869Z" fill="#FFFFFE"/>
<path fill-rule="evenodd" clip-rule="evenodd" d="M117 133.004C117 147.908 129.085 160 144 160C158.917 160 171 147.908 171 133.004C171 118.092 158.917 106 144 106C129.085 106 117 118.092 117 133.004M157.061 133.004C157.061 140.21 151.216 146.055 144 146.055C136.784 146.055 130.939 140.21 130.939 133.004C130.939 125.79 136.784 119.945 144 119.945C151.216 119.945 157.061 125.79 157.061 133.004" fill="#007BFF"/>
<path fill-rule="evenodd" clip-rule="evenodd" d="M215 41.8943H206.106V33H197.894V41.8943H189V50.1043H197.894V59H206.106V50.1043H215V41.8943Z" fill="#007BFF"/>
</svg>

<svg width="215" height="304" fill="none" xmlns="http://www.w3.org/2000/svg"><path fill-rule="evenodd" clip-rule="evenodd" d="M36.73 215.42c-.95 0-1.73-.77-1.73-1.71s.77-1.71 1.73-1.71c.95 0 1.73.77 1.73 1.7 0 .95-.78 1.72-1.73 1.72M49.4 215.42c-.95 0-1.73-.77-1.73-1.71s.78-1.71 1.73-1.71 1.73.77 1.73 1.7c0 .95-.78 1.72-1.73 1.72M61.5 215.42c-.95 0-1.73-.77-1.73-1.71s.78-1.71 1.73-1.71 1.73.77 1.73 1.7c0 .95-.78 1.72-1.73 1.72M74.17 215.42c-.95 0-1.72-.77-1.72-1.71s.77-1.71 1.72-1.71c.96 0 1.73.77 1.73 1.7 0 .95-.77 1.72-1.73 1.72M86.27 215.42c-.95 0-1.73-.77-1.73-1.71s.78-1.71 1.73-1.71 1.73.77 1.73 1.7c0 .95-.78 1.72-1.73 1.72M36.73 227.96c-.95 0-1.73-.77-1.73-1.71 0-.95.77-1.71 1.73-1.71.95 0 1.73.76 1.73 1.7 0 .95-.78 1.72-1.73 1.72M49.4 227.96c-.95 0-1.73-.77-1.73-1.71 0-.95.78-1.71 1.73-1.71s1.73.76 1.73 1.7c0 .95-.78 1.72-1.73 1.72M61.5 227.96c-.95 0-1.73-.77-1.73-1.71 0-.95.78-1.71 1.73-1.71s1.73.76 1.73 1.7c0 .95-.78 1.72-1.73 1.72M74.17 227.96c-.95 0-1.72-.77-1.72-1.71 0-.95.77-1.71 1.72-1.71.96 0 1.73.76 1.73 1.7 0 .95-.77 1.72-1.73 1.72M86.27 227.96c-.95 0-1.73-.77-1.73-1.71 0-.95.78-1.71 1.73-1.71s1.73.76 1.73 1.7c0 .95-.78 1.72-1.73 1.72M36.73 239.92c-.95 0-1.73-.76-1.73-1.7 0-.95.77-1.72 1.73-1.72.95 0 1.73.77 1.73 1.71s-.78 1.71-1.73 1.71M49.4 239.92c-.95 0-1.73-.76-1.73-1.7 0-.95.78-1.72 1.73-1.72s1.73.77 1.73 1.71-.78 1.71-1.73 1.71M61.5 239.92c-.95 0-1.73-.76-1.73-1.7 0-.95.78-1.72 1.73-1.72s1.73.77 1.73 1.71-.78 1.71-1.73 1.71M74.17 239.92c-.95 0-1.72-.76-1.72-1.7a1.72 1.72 0 0 1 3.46 0c0 .94-.78 1.7-1.74 1.7M86.27 239.92c-.95 0-1.73-.76-1.73-1.7 0-.95.78-1.72 1.73-1.72s1.73.77 1.73 1.71-.78 1.71-1.73 1.71M36.73 252.46c-.95 0-1.73-.77-1.73-1.71s.77-1.71 1.73-1.71c.95 0 1.73.77 1.73 1.7 0 .95-.78 1.72-1.73 1.72M49.4 252.46c-.95 0-1.73-.77-1.73-1.71s.78-1.71 1.73-1.71 1.73.77 1.73 1.7c0 .95-.78 1.72-1.73 1.72M61.5 252.46c-.95 0-1.73-.77-1.73-1.71s.78-1.71 1.73-1.71 1.73.77 1.73 1.7c0 .95-.78 1.72-1.73 1.72M74.17 252.46c-.95 0-1.72-.77-1.72-1.71s.77-1.71 1.72-1.71c.96 0 1.73.77 1.73 1.7 0 .95-.77 1.72-1.73 1.72M86.27 252.46c-.95 0-1.73-.77-1.73-1.71s.78-1.71 1.73-1.71 1.73.77 1.73 1.7c0 .95-.78 1.72-1.73 1.72M36.73 265c-.95 0-1.73-.77-1.73-1.71 0-.95.77-1.72 1.73-1.72.95 0 1.73.77 1.73 1.72 0 .94-.78 1.7-1.73 1.7M49.4 265c-.95 0-1.73-.77-1.73-1.71 0-.95.78-1.72 1.73-1.72s1.73.77 1.73 1.72c0 .94-.78 1.7-1.73 1.7M61.5 265c-.95 0-1.73-.77-1.73-1.71 0-.95.78-1.72 1.73-1.72s1.73.77 1.73 1.72c0 .94-.78 1.7-1.73 1.7M74.17 265c-.95 0-1.72-.77-1.72-1.71a1.72 1.72 0 0 1 3.46 0c0 .94-.78 1.7-1.74 1.7M86.27 265c-.95 0-1.73-.77-1.73-1.71 0-.95.78-1.72 1.73-1.72s1.73.77 1.73 1.72c0 .94-.78 1.7-1.73 1.7M36.73 276.96c-.95 0-1.73-.77-1.73-1.7 0-.95.77-1.72 1.73-1.72.95 0 1.73.77 1.73 1.71s-.78 1.71-1.73 1.71M49.4 276.96c-.95 0-1.73-.77-1.73-1.7 0-.95.78-1.72 1.73-1.72s1.73.77 1.73 1.71-.78 1.71-1.73 1.71M61.5 276.96c-.95 0-1.73-.77-1.73-1.7 0-.95.78-1.72 1.73-1.72s1.73.77 1.73 1.71-.78 1.71-1.73 1.71M74.17 276.96c-.95 0-1.72-.77-1.72-1.7a1.72 1.72 0 0 1 3.46 0c0 .93-.78 1.7-1.74 1.7M86.27 276.96c-.95 0-1.73-.77-1.73-1.7 0-.95.78-1.72 1.73-1.72s1.73.77 1.73 1.71-.78 1.71-1.73 1.71M36.73 289.5c-.95 0-1.73-.77-1.73-1.71s.77-1.71 1.73-1.71c.95 0 1.73.77 1.73 1.7 0 .95-.78 1.72-1.73 1.72M49.4 289.5c-.95 0-1.73-.77-1.73-1.71s.78-1.71 1.73-1.71 1.73.77 1.73 1.7c0 .95-.78 1.72-1.73 1.72M61.5 289.5c-.95 0-1.73-.77-1.73-1.71s.78-1.71 1.73-1.71 1.73.77 1.73 1.7c0 .95-.78 1.72-1.73 1.72M74.17 289.5c-.95 0-1.72-.77-1.72-1.71s.77-1.71 1.72-1.71c.96 0 1.73.77 1.73 1.7 0 .95-.77 1.72-1.73 1.72M86.27 289.5c-.95 0-1.73-.77-1.73-1.71s.78-1.71 1.73-1.71 1.73.77 1.73 1.7c0 .95-.78 1.72-1.73 1.72M36.73 301.46c-.95 0-1.73-.76-1.73-1.7 0-.95.77-1.71 1.73-1.71.95 0 1.73.76 1.73 1.7 0 .95-.78 1.71-1.73 1.71M49.4 301.46c-.95 0-1.73-.76-1.73-1.7 0-.95.78-1.71 1.73-1.71s1.73.76 1.73 1.7c0 .95-.78 1.71-1.73 1.71M61.5 301.46c-.95 0-1.73-.76-1.73-1.7 0-.95.78-1.71 1.73-1.71s1.73.76 1.73 1.7c0 .95-.78 1.71-1.73 1.71M74.17 301.46c-.95 0-1.72-.76-1.72-1.7 0-.95.77-1.71 1.72-1.71.96 0 1.73.76 1.73 1.7 0 .95-.77 1.71-1.73 1.71M86.27 301.46c-.95 0-1.73-.76-1.73-1.7 0-.95.78-1.71 1.73-1.71s1.73.76 1.73 1.7c0 .95-.78 1.71-1.73 1.71M46.5-19a67.5 67.5 0 1 0 0 135 67.5 67.5 0 0 0 0-135Z" fill="#000638"/><path fill-rule="evenodd" clip-rule="evenodd" d="M7.01 52.25-21.75 81a33.02 33.02 0 0 0-.25 4.02L11.03 52c-1.34 0-2.68.09-4.02.25ZM16.53 53.07l-37.46 37.46c.17 1.02.4 2.03.68 3.03l39.8-39.81c-1-.28-2-.5-3.02-.68ZM23.5 55.2l-42.3 42.3c.36.83.77 1.65 1.21 2.45l43.54-43.54a31.6 31.6 0 0 0-2.45-1.21ZM30.27 58.4l-45.88 45.87c.53.71 1.1 1.4 1.69 2.07l46.26-46.26c-.67-.6-1.36-1.16-2.07-1.69ZM34.92 62.66l-46.26 46.27c.67.59 1.36 1.15 2.07 1.68L36.6 64.73c-.53-.71-1.1-1.4-1.69-2.07ZM38.59 69.05l-43.54 43.54c.8.44 1.62.84 2.45 1.21l42.3-42.3a31.9 31.9 0 0 0-1.21-2.45ZM41.25 75.44l-39.8 39.81c1 .28 2 .5 3.02.68l37.46-37.46c-.17-1.02-.4-2.03-.68-3.03ZM43 83.97 9.97 117c1.34 0 2.68-.08 4.02-.25L42.75 88c.17-1.34.25-2.68.25-4.02ZM22.75 114.87a32.36 32.36 0 0 0 10.92-7.2 32.35 32.35 0 0 0 7.2-10.92l-18.12 18.12Z" fill="#FFFFFE"/><path fill-rule="evenodd" clip-rule="evenodd" d="M117 133a27 27 0 1 0 54 0 27 27 0 0 0-54 0m40.06 0a13.06 13.06 0 1 1-26.11 0 13.06 13.06 0 0 1 26.11 0M215 41.9h-8.9V33h-8.2v8.9H189v8.2h8.9V59h8.2v-8.9h8.9v-8.2Z" fill="#007BFF"/></svg>
